images/icon-cart.svg

<svg width="18" height="16" viewBox="0 0 18 16" fill="none" xmlns="http://www.w3.org/2000/svg">
<path d="M14.0703 12.642C13.2498 12.642 12.642 13.3106 12.642 14.1007C12.642 14.9212 13.2802 15.5594 14.0703 15.5594C14.8301 15.5594 15.4986 14.9212 15.4986 14.1007C15.4986 13.3106 14.8908 12.642 14.0703 12.642ZM5.31815 12.642C4.49764 12.642 3.88985 13.3106 3.88985 14.1007C3.88985 14.9212 4.52803 15.5594 5.31815 15.5594C6.07789 15.5594 6.74646 14.9212 6.74646 14.1007C6.74646 13.3106 6.13867 12.642 5.31815 12.642ZM17.2916 1.36753C17.1093 1.12441 16.8358 0.972462 16.5015 0.972462H3.67712L3.61634 0.607789C3.55557 0.273505 3.25167 0 2.91739 0H0.698957C0.303894 0 0 0.334284 0 0.729347C0 1.09402 0.303894 1.45869 0.698957 1.45869H2.27921L4.10258 11.0921C4.19374 11.4264 4.49764 11.6695 4.86231 11.6695H14.8301C15.2251 11.6695 15.5594 11.3657 15.5594 10.9706C15.5594 10.5451 15.2251 10.2109 14.8301 10.2109H5.43971L5.16621 8.75216H14.8604C15.2859 8.75216 15.6506 8.47866 15.7721 8.0532L17.4435 2.24882C17.5347 1.94492 17.4739 1.61064 17.2916 1.36753Z" fill="white"/>
</svg>

<svg xmlns="http://www.w3.org/2000/svg" width="18" height="16" fill="none" viewBox="0 0 18 16"><path fill="#fff" d="M14.07 12.642c-.82 0-1.428.669-1.428 1.459 0 .82.638 1.458 1.428 1.458.76 0 1.429-.638 1.429-1.458 0-.79-.608-1.459-1.429-1.459m-8.752 0c-.82 0-1.428.669-1.428 1.459 0 .82.638 1.458 1.428 1.458.76 0 1.428-.638 1.428-1.458 0-.79-.607-1.459-1.428-1.459M17.292 1.368a.96.96 0 0 0-.79-.396H3.677l-.06-.364C3.555.274 3.251 0 2.916 0H.7C.304 0 0 .334 0 .73c0 .364.304.729.699.729h1.58l1.824 9.633a.784.784 0 0 0 .76.577h9.967c.395 0 .73-.303.73-.698a.747.747 0 0 0-.73-.76H5.44l-.274-1.459h9.694a.94.94 0 0 0 .912-.699l1.672-5.804c.09-.304.03-.638-.152-.881"/></svg>
